assets/icons/topmate.svg

<svg role="img" fill="currentColor" viewBox="0 0 24 24" xmlns="http://www.w3.org/2000/svg">
    <title>Topmate</title>
    <path
        d="M18.3515 2.97653C18.3693 2.9893 18.3872 3.00208 18.4055 3.01524C18.6214 3.17044 18.8323 3.32901 19.033 3.50341C19.0996 3.56083 19.1676 3.61595 19.2363 3.67086C19.3377 3.75327 19.4297 3.84128 19.5208 3.93481C19.5665 3.98057 19.6134 4.02294 19.6626 4.06491C19.8244 4.2042 19.9732 4.35707 20.1118 4.51938C20.1556 4.56957 20.2008 4.61825 20.2463 4.66685C20.386 4.81647 20.5136 4.97308 20.6379 5.13558C20.6725 5.18044 20.7075 5.22488 20.7426 5.26928C21.0454 5.65475 21.3211 6.06538 21.5625 6.49215C21.5728 6.51042 21.5832 6.52868 21.5939 6.5475C22.3748 7.93144 22.8541 9.45488 22.9922 11.039C22.9944 11.062 22.9966 11.085 22.9989 11.1086C23.2057 13.5232 22.5635 15.9329 21.0234 18.3515C21.0106 18.3693 20.9979 18.3872 20.9847 18.4055C20.8295 18.6214 20.6709 18.8323 20.4965 19.033C20.4391 19.0996 20.384 19.1676 20.3291 19.2363C20.2467 19.3377 20.1587 19.4297 20.0651 19.5208C20.0194 19.5665 19.977 19.6134 19.935 19.6626C19.7957 19.8244 19.6429 19.9732 19.4806 20.1118C19.4304 20.1556 19.3817 20.2008 19.3331 20.2463C19.1835 20.386 19.0269 20.5136 18.8644 20.6379C18.8195 20.6725 18.775 20.7075 18.7307 20.7426C18.3452 21.0454 17.9346 21.3211 17.5078 21.5625C17.4895 21.5728 17.4713 21.5832 17.4524 21.5939C16.0685 22.3748 14.5451 22.8541 12.9609 22.9922C12.9379 22.9944 12.915 22.9966 12.8913 22.9989C10.4767 23.2057 8.06703 22.5635 5.6484 21.0234C5.63059 21.0106 5.61278 20.9979 5.59442 20.9847C5.37853 20.8295 5.16765 20.6709 4.96689 20.4965C4.9003 20.4391 4.8323 20.384 4.76364 20.3291C4.66225 20.2467 4.5702 20.1587 4.47909 20.0651C4.43342 20.0194 4.38651 19.977 4.33737 19.935C4.17551 19.7957 4.02673 19.6429 3.88812 19.4806C3.84433 19.4304 3.79913 19.3817 3.75359 19.3331C3.61392 19.1835 3.48635 19.0269 3.36202 18.8644C3.32748 18.8195 3.29245 18.775 3.25732 18.7307C2.95451 18.3452 2.67885 17.9346 2.43747 17.5078C2.4271 17.4895 2.41673 17.4713 2.40605 17.4524C1.62515 16.0685 1.14582 14.5451 1.00778 12.9609C1.00557 12.9379 1.00336 12.915 1.00108 12.8913C0.79424 10.4767 1.43646 8.06703 2.97653 5.6484C2.9893 5.63059 3.00208 5.61278 3.01524 5.59442C3.17044 5.37853 3.32901 5.16765 3.50341 4.96689C3.56083 4.9003 3.61595 4.8323 3.67086 4.76364C3.75327 4.66225 3.84128 4.5702 3.93481 4.47909C3.98057 4.43342 4.02294 4.38651 4.06491 4.33737C4.2042 4.17551 4.35707 4.02673 4.51938 3.88812C4.56957 3.84433 4.61825 3.79913 4.66685 3.75359C4.81647 3.61392 4.97308 3.48635 5.13558 3.36202C5.18044 3.32748 5.22488 3.29245 5.26928 3.25732C5.65475 2.95451 6.06538 2.67885 6.49215 2.43747C6.51042 2.4271 6.52868 2.41673 6.5475 2.40605C7.93286 1.62434 9.45383 1.14591 11.039 1.00778C11.062 1.00557 11.085 1.00336 11.1086 1.00108C13.5232 0.79424 15.9329 1.43646 18.3515 2.97653ZM10.7109 6.11715C10.6863 6.12294 10.6617 6.12872 10.6363 6.13468C10.2836 6.21874 9.94328 6.32748 9.60934 6.46872C9.59237 6.47586 9.5754 6.48301 9.55791 6.49037C8.78742 6.82053 8.06857 7.34738 7.52313 7.98474C7.48939 8.02405 7.45507 8.06287 7.42041 8.10138C6.58352 9.04292 6.02096 10.4048 6.01947 11.6674C6.01939 11.6909 6.01931 11.7145 6.01923 11.7388C6.01911 11.7885 6.01906 11.8382 6.01906 11.8879C6.01901 11.9624 6.01858 12.0369 6.01814 12.1114C6.01705 12.4951 6.03538 12.8729 6.12155 13.248C6.12657 13.2703 6.13159 13.2926 6.13677 13.3155C6.23683 13.7461 6.37625 14.1539 6.56247 14.5547C6.5701 14.5712 6.57774 14.5878 6.58561 14.6048C6.78567 15.0342 7.03676 15.4301 7.3359 15.7968C7.3475 15.8111 7.35909 15.8255 7.37104 15.8402C7.62578 16.1523 7.90728 16.4411 8.22653 16.6875C8.26097 16.7151 8.26097 16.7151 8.29611 16.7432C9.54329 17.7359 11.1071 18.1295 12.6797 17.9531C13.8202 17.8097 14.9289 17.3041 15.7734 16.5234C15.8124 16.4887 15.8515 16.454 15.8906 16.4194C16.074 16.2541 16.2485 16.0806 16.4062 15.8906C16.4174 15.8771 16.4286 15.8636 16.4402 15.8497C16.4789 15.803 16.5173 15.756 16.5556 15.709C16.5682 15.6937 16.5808 15.6785 16.5938 15.6627C16.6055 15.6481 16.6173 15.6335 16.6294 15.6185C16.64 15.6055 16.6507 15.5924 16.6616 15.579C16.6902 15.5348 16.701 15.4966 16.7109 15.4453C16.7003 15.4376 16.6898 15.43 16.6789 15.4221C16.6467 15.3989 16.6145 15.3757 16.5824 15.3524C16.5445 15.3251 16.5066 15.2977 16.4687 15.2704C16.3728 15.2011 16.2769 15.1318 16.1811 15.0624C16.0107 14.939 15.84 14.8163 15.6679 14.6953C15.4774 14.5613 15.2886 14.4251 15.1 14.2884C15.012 14.2247 14.924 14.1612 14.8359 14.0976C14.7293 14.0207 14.6227 13.9437 14.5162 13.8666C14.3574 13.7518 14.1986 13.6371 14.039 13.5234C13.8612 13.3967 13.6843 13.2687 13.5073 13.1407C13.4365 13.0895 13.3656 13.0383 13.2947 12.9871C13.2596 12.9618 13.2245 12.9364 13.1894 12.9111C13.1018 12.8478 13.0142 12.7846 12.9266 12.7215C12.705 12.5619 12.4846 12.401 12.2649 12.2388C12.2482 12.2265 12.2315 12.2142 12.2143 12.2015C12.1796 12.1757 12.1452 12.1496 12.111 12.1232C12.0943 12.1103 12.0775 12.0974 12.0602 12.0841C12.0452 12.0724 12.0302 12.0608 12.0148 12.0488C11.9777 12.0191 11.9777 12.0191 11.9297 12.0234C11.9297 12.0079 11.9297 11.9925 11.9297 11.9765C11.9463 11.9704 11.963 11.9642 11.9802 11.9578C12.05 11.9283 12.111 11.8933 12.1755 11.8536C12.2008 11.838 12.2262 11.8225 12.2523 11.8065C12.2658 11.7982 12.2793 11.7899 12.2932 11.7813C12.3666 11.7361 12.4402 11.6912 12.5139 11.6463C12.5293 11.6369 12.5447 11.6274 12.5606 11.6177C12.7322 11.5132 12.9051 11.4108 13.0781 11.3086C13.3133 11.1694 13.5478 11.029 13.7812 10.8867C14.0146 10.7444 14.2491 10.604 14.4843 10.4648C14.753 10.3058 15.0205 10.145 15.2872 9.98267C15.4436 9.88744 15.6002 9.79269 15.7573 9.6987C16.1642 9.45501 16.5687 9.20794 16.9687 8.95309C16.9351 8.82986 16.8788 8.73954 16.8061 8.63669C16.7947 8.62035 16.7833 8.60401 16.7715 8.58718C16.5817 8.3182 16.377 8.06525 16.1484 7.82809C16.1347 7.81391 16.1211 7.79972 16.107 7.78511C15.927 7.59953 15.7452 7.42228 15.539 7.26559C15.5264 7.25583 15.5137 7.24606 15.5007 7.236C14.5576 6.51107 13.3888 6.02754 12.1895 6.01782C12.1542 6.01747 12.1542 6.01747 12.1181 6.01712C11.4091 6.0082 11.4091 6.0082 10.7109 6.11715Z" />
</svg>

<svg fill="currentColor" viewBox="0 0 24 24" xmlns="http://www.w3.org/2000/svg"><path d="M18.352 2.977l.053.038c.216.155.427.314.628.488.067.058.135.113.203.168.102.082.194.17.285.264.046.046.092.088.142.13.161.14.31.292.449.454.044.05.089.1.134.148.14.15.268.306.392.469l.105.133c.302.386.578.796.82 1.223l.03.056A11.082 11.082 0 0123 11.107c.207 2.415-.435 4.825-1.976 7.244l-.038.053a8.609 8.609 0 01-.488.628 7.082 7.082 0 00-.168.203c-.082.102-.17.194-.264.285a2.425 2.425 0 00-.13.142c-.14.161-.292.31-.454.449a5.69 5.69 0 00-.148.134c-.15.14-.306.268-.469.392l-.133.105a9.779 9.779 0 01-1.223.82l-.056.03A11.082 11.082 0 0112.892 23c-2.415.207-4.825-.435-7.244-1.976l-.054-.038a8.625 8.625 0 01-.627-.488 7.121 7.121 0 00-.203-.168 3.306 3.306 0 01-.285-.264 2.433 2.433 0 00-.142-.13 4.168 4.168 0 01-.449-.454 5.603 5.603 0 00-.134-.148 6.207 6.207 0 01-.392-.469 9.775 9.775 0 01-.925-1.357l-.031-.055a11.08 11.08 0 01-1.398-4.491L1 12.89c-.207-2.414.435-4.824 1.976-7.243l.038-.054c.155-.215.314-.426.488-.627.058-.067.113-.135.168-.203.082-.102.17-.194.264-.285.046-.046.088-.092.13-.142.14-.161.292-.31.454-.449.05-.044.1-.089.148-.134.15-.14.306-.268.469-.392l.133-.105a9.775 9.775 0 011.223-.82l.056-.03A11.072 11.072 0 0111.107 1c2.415-.207 4.825.435 7.244 1.976zm-7.641 3.14l-.075.018a6.471 6.471 0 00-1.027.334l-.051.021a5.65 5.65 0 00-2.035 1.495c-.034.04-.068.078-.103.116-.836.942-1.399 2.304-1.4 3.566a631.9 631.9 0 00-.002.444 4.968 4.968 0 00.119 1.204c.1.431.24.839.425 1.24l.024.05c.2.43.45.825.75 1.192l.035.043c.255.312.536.601.856.848l.07.055c1.246.993 2.81 1.387 4.383 1.21a5.642 5.642 0 003.093-1.43l.118-.104c.183-.165.357-.338.515-.528l.034-.041.116-.141.038-.046.035-.045.033-.039a.342.342 0 00.049-.134l-.032-.023-.097-.07-.113-.082-.288-.208c-.17-.123-.341-.246-.513-.367-.19-.134-.38-.27-.568-.407l-.264-.19-.32-.231c-.159-.115-.317-.23-.477-.344-.178-.126-.355-.254-.532-.382l-.212-.154-.106-.076-.262-.19c-.222-.16-.442-.32-.662-.482l-.05-.038a7.179 7.179 0 01-.104-.078l-.05-.039-.046-.035c-.037-.03-.037-.03-.085-.026v-.046l.05-.02c.07-.029.131-.064.195-.103l.077-.047.041-.026.22-.135.048-.028c.171-.105.344-.207.517-.31.235-.139.47-.279.703-.421.234-.143.468-.283.703-.422.269-.16.537-.32.803-.482l.47-.284c.407-.244.812-.491 1.212-.746a.965.965 0 00-.163-.316l-.035-.05a6.416 6.416 0 00-.623-.759l-.041-.043a5.072 5.072 0 00-.568-.52l-.038-.029c-.943-.725-2.112-1.208-3.311-1.218h-.072c-.709-.01-.709-.01-1.407.1z"/></svg>
